src/modules/75-ce/components/COHelpSidebar/images/dnsLink.svg

<svg fill="none" height="60" viewBox="0 0 86 60" width="86" xmlns="http://www.w3.org/2000/svg"><path clip-rule="evenodd" d="m83.9174.806885h-82.72829c-.315262.00035-.617515.125758-.840442.348705-.222926.22295-.34831819.52523-.348668.84053v56.06398c.00035026.3153.125742.6176.348668.8405.222927.223.52518.3484.840442.3487h82.72829c.3153-.0003.6175-.1257.8405-.3487.2229-.2229.3483-.5252.3486-.8405v-56.06398c-.0003-.3153-.1257-.61758-.3486-.84053-.223-.222947-.5252-.348355-.8405-.348705zm.8494 57.253215c-.0001.2253-.0896.4413-.2489.6005-.1593.1593-.3752.2489-.6005.2489h-82.72829c-.225235 0-.441224-.0896-.600492-.2489-.159267-.1592-.248781-.3752-.248871-.6005v-52.14969h84.427053zm0-52.48947h-84.427053v-3.57451c.00009-.22526.089604-.44127.248871-.60055.159268-.15929.375257-.24881.600492-.2489h82.72829c.2253.00009.4412.08961.6005.2489.1593.15928.2488.37529.2489.60055zm-80.68995-2.21538c0 .56297-.45633 1.01935-1.01924 1.01935s-1.01924-.45638-1.01924-1.01935.45633-1.01934 1.01924-1.01934 1.01924.45637 1.01924 1.01934zm1.91123 1.01935c.56291 0 1.01924-.45638 1.01924-1.01935s-.45633-1.01934-1.01924-1.01934-1.01924.45637-1.01924 1.01934.45633 1.01935 1.01924 1.01935zm3.94951-1.01935c0 .56297-.45633 1.01935-1.01924 1.01935s-1.01924-.45638-1.01924-1.01935.45633-1.01934 1.01924-1.01934 1.01924.45637 1.01924 1.01934zm58.66161 13.84005h-52.6608c-.6983 0-1.368-.2774-1.8618-.7712-.4938-.4939-.7712-1.1637-.7712-1.8621s.2774-1.3682.7712-1.862 1.1635-.7713 1.8618-.7713h52.6608c.6983 0 1.368.2775 1.8618.7713s.7712 1.1636.7712 1.862-.2774 1.3682-.7712 1.8621c-.4938.4938-1.1635.7712-1.8618.7712zm-52.6608-4.9268c-.6082 0-1.1915.2416-1.6215.6718-.4301.4301-.6717 1.0134-.6717 1.6217s.2416 1.1917.6717 1.6218c.43.4301 1.0133.6718 1.6215.6718h52.6608c.6082 0 1.1915-.2417 1.6216-.6718.43-.4301.6716-1.0135.6716-1.6218s-.2416-1.1916-.6716-1.6217c-.4301-.4302-1.0134-.6718-1.6216-.6718zm3.3976 18.3482h10.1924c.6983 0 1.368-.2774 1.8618-.7713.4938-.4938.7712-1.1636.7712-1.862s-.2774-1.3682-.7712-1.862c-.4938-.4939-1.1635-.7713-1.8618-.7713h-10.1924c-.6984 0-1.3681.2774-1.8619.7713-.4938.4938-.7712 1.1636-.7712 1.862s.2774 1.3682.7712 1.862c.4938.4939 1.1635.7713 1.8619.7713zm-1.6216-4.2551c.43-.4301 1.0134-.6717 1.6216-.6717h10.1924c.6082 0 1.1915.2416 1.6216.6717.43.4302.6716 1.0135.6716 1.6218s-.2416 1.1917-.6716 1.6218c-.4301.4301-1.0134.6717-1.6216.6717h-10.1924c-.6082 0-1.1916-.2416-1.6216-.6717-.4301-.4301-.6717-1.0135-.6717-1.6218s.2416-1.1916.6717-1.6218zm11.814 13.0894h-10.1924c-.6984 0-1.3681-.2774-1.8619-.7712-.4938-.4939-.7712-1.1637-.7712-1.8621s.2774-1.3682.7712-1.862c.4938-.4939 1.1635-.7713 1.8619-.7713h10.1924c.6983 0 1.368.2774 1.8618.7713.4938.4938.7712 1.1636.7712 1.862s-.2774 1.3682-.7712 1.8621c-.4938.4938-1.1635.7712-1.8618.7712zm-10.1924-4.9268c-.6082 0-1.1916.2416-1.6216.6718-.4301.4301-.6717 1.0134-.6717 1.6217s.2416 1.1917.6717 1.6218c.43.4301 1.0134.6717 1.6216.6717h10.1924c.6082 0 1.1915-.2416 1.6216-.6717.43-.4301.6716-1.0135.6716-1.6218s-.2416-1.1916-.6716-1.6217c-.4301-.4302-1.0134-.6718-1.6216-.6718zm0 13.7611h10.1924c.6983 0 1.368-.2774 1.8618-.7712.4938-.4939.7712-1.1637.7712-1.8621s-.2774-1.3681-.7712-1.862c-.4938-.4938-1.1635-.7713-1.8618-.7713h-10.1924c-.6984 0-1.3681.2775-1.8619.7713-.4938.4939-.7712 1.1636-.7712 1.862s.2774 1.3682.7712 1.8621c.4938.4938 1.1635.7712 1.8619.7712zm-1.6216-4.255c.43-.4301 1.0134-.6718 1.6216-.6718h10.1924c.6082 0 1.1915.2417 1.6216.6718.43.4301.6716 1.0135.6716 1.6217 0 .6083-.2416 1.1917-.6716 1.6218-.4301.4301-1.0134.6718-1.6216.6718h-10.1924c-.6082 0-1.1916-.2417-1.6216-.6718-.4301-.4301-.6717-1.0135-.6717-1.6218 0-.6082.2416-1.1916.6717-1.6217zm13.3428-28.279h-14.2694c-.3153 0-.6178-.1253-.8408-.3484-.223-.223-.3483-.5255-.3483-.8409s.1253-.6179.3483-.8409.5255-.3483.8408-.3483h14.2694c.3154 0 .6178.1253.8408.3483s.3483.5255.3483.8409-.1253.6179-.3483.8409c-.223.2231-.5254.3484-.8408.3484zm35.0978-.7951c.1955.1307.4254.2004.6606.2004.1954-.0002.3859-.0485.5555-.1382l1.1642 1.1643c.0157.0158.0344.0283.0551.0369.0206.0085.0427.0129.065.0129.0336 0 .0664-.01.0943-.0287.028-.0186.0497-.0452.0626-.0762.0128-.0311.0162-.0652.0097-.0982-.0066-.0329-.0228-.0632-.0465-.0869l-1.127-1.1271.0075-.0075c.223-.2229.3484-.5252.3487-.8405 0-.2352-.0697-.4651-.2004-.6607-.1306-.1956-.3164-.348-.5337-.438-.2172-.09-.4563-.1136-.687-.0677s-.4425.1592-.6088.3255c-.1664.1663-.2796.3782-.3255.6089s-.0223.4698.0677.6871.2424.4031.438.5337zm.1887-1.6951c.1397-.0933.3039-.1431.4719-.1431.2252.0002.4411.0898.6003.249.1592.1593.2488.3752.2491.6004 0 .168-.0498.3323-.1432.4719-.0933.1397-.226.2486-.3812.3129s-.3259.0811-.4907.0483c-.1648-.0327-.3161-.1136-.4349-.2324s-.1997-.2702-.2325-.435c-.0327-.1647-.0159-.3355.0484-.4908.0643-.1552.1731-.2878.3128-.3812zm-5.9833 16.3363h5.7757c.428 0 .8385-.1701 1.1411-.4728.3027-.3026.4727-.7132.4727-1.1412s-.17-.8386-.4727-1.1412c-.3026-.3027-.7131-.4728-1.1411-.4728h-5.7757c-.428 0-.8385.1701-1.1411.4728-.3027.3026-.4727.7132-.4727 1.1412s.17.8386.4727 1.1412c.3026.3027.7131.4728 1.1411.4728zm5.7757 8.8343h-5.7757c-.428 0-.8385-.17-1.1411-.4727-.3027-.3027-.4727-.7132-.4727-1.1413 0-.428.17-.8385.4727-1.1412.3026-.3027.7131-.4727 1.1411-.4727h5.7757c.428 0 .8385.17 1.1411.4727.3027.3027.4727.7132.4727 1.1412 0 .4281-.17.8386-.4727 1.1413-.3026.3027-.7131.4727-1.1411.4727zm-5.7757 8.8343h5.7757c.428 0 .8385-.17 1.1411-.4727.3027-.3027.4727-.7132.4727-1.1413 0-.428-.17-.8385-.4727-1.1412-.3026-.3027-.7131-.4727-1.1411-.4727h-5.7757c-.428 0-.8385.17-1.1411.4727-.3027.3027-.4727.7132-.4727 1.1412 0 .4281.17.8386.4727 1.1413.3026.3027.7131.4727 1.1411.4727z" fill="#0278d5" fill-rule="evenodd"/></svg>

<svg width="86" height="60" viewBox="0 0 86 60" fill="none" xmlns="http://www.w3.org/2000/svg">
<path fill-rule="evenodd" clip-rule="evenodd" d="M83.9174 0.806885H1.18911C0.873848 0.807235 0.571595 0.932643 0.348668 1.15559C0.125742 1.37854 0.000349812 1.68082 0 1.99612V58.0601C0.00035026 58.3754 0.125742 58.6777 0.348668 58.9006C0.571595 59.1236 0.873848 59.249 1.18911 59.2493H83.9174C84.2327 59.249 84.5349 59.1236 84.7579 58.9006C84.9808 58.6777 85.1062 58.3754 85.1065 58.0601V1.99612C85.1062 1.68082 84.9808 1.37854 84.7579 1.15559C84.5349 0.932643 84.2327 0.807235 83.9174 0.806885ZM84.7668 58.0601C84.7667 58.2854 84.6772 58.5014 84.5179 58.6606C84.3586 58.8199 84.1427 58.9095 83.9174 58.9095H1.18911C0.963875 58.9095 0.747886 58.8199 0.588618 58.6606C0.429351 58.5014 0.339837 58.2854 0.339747 58.0601V5.91041H84.7668V58.0601ZM84.7668 5.57063H0.339747V1.99612C0.339837 1.77086 0.429351 1.55485 0.588618 1.39557C0.747886 1.23628 0.963875 1.14676 1.18911 1.14667H83.9174C84.1427 1.14676 84.3586 1.23628 84.5179 1.39557C84.6772 1.55485 84.7667 1.77086 84.7668 1.99612V5.57063ZM4.07685 3.35525C4.07685 3.91822 3.62052 4.3746 3.05761 4.3746C2.4947 4.3746 2.03837 3.91822 2.03837 3.35525C2.03837 2.79228 2.4947 2.33591 3.05761 2.33591C3.62052 2.33591 4.07685 2.79228 4.07685 3.35525ZM5.98808 4.3746C6.55099 4.3746 7.00732 3.91822 7.00732 3.35525C7.00732 2.79228 6.55099 2.33591 5.98808 2.33591C5.42517 2.33591 4.96884 2.79228 4.96884 3.35525C4.96884 3.91822 5.42517 4.3746 5.98808 4.3746ZM9.93759 3.35525C9.93759 3.91822 9.48126 4.3746 8.91835 4.3746C8.35544 4.3746 7.89911 3.91822 7.89911 3.35525C7.89911 2.79228 8.35544 2.33591 8.91835 2.33591C9.48126 2.33591 9.93759 2.79228 9.93759 3.35525ZM68.5992 17.1953H15.9384C15.2401 17.1953 14.5704 16.9179 14.0766 16.4241C13.5828 15.9302 13.3054 15.2604 13.3054 14.562C13.3054 13.8636 13.5828 13.1938 14.0766 12.7C14.5704 12.2062 15.2401 11.9287 15.9384 11.9287H68.5992C69.2975 11.9287 69.9672 12.2062 70.461 12.7C70.9548 13.1938 71.2322 13.8636 71.2322 14.562C71.2322 15.2604 70.9548 15.9302 70.461 16.4241C69.9672 16.9179 69.2975 17.1953 68.5992 17.1953ZM15.9384 12.2685C15.3302 12.2685 14.7469 12.5101 14.3169 12.9403C13.8868 13.3704 13.6452 13.9537 13.6452 14.562C13.6452 15.1703 13.8868 15.7537 14.3169 16.1838C14.7469 16.6139 15.3302 16.8556 15.9384 16.8556H68.5992C69.2074 16.8556 69.7907 16.6139 70.2208 16.1838C70.6508 15.7537 70.8924 15.1703 70.8924 14.562C70.8924 13.9537 70.6508 13.3704 70.2208 12.9403C69.7907 12.5101 69.2074 12.2685 68.5992 12.2685H15.9384ZM19.336 30.6167H29.5284C30.2267 30.6167 30.8964 30.3393 31.3902 29.8454C31.884 29.3516 32.1614 28.6818 32.1614 27.9834C32.1614 27.285 31.884 26.6152 31.3902 26.1214C30.8964 25.6275 30.2267 25.3501 29.5284 25.3501H19.336C18.6376 25.3501 17.9679 25.6275 17.4741 26.1214C16.9803 26.6152 16.7029 27.285 16.7029 27.9834C16.7029 28.6818 16.9803 29.3516 17.4741 29.8454C17.9679 30.3393 18.6376 30.6167 19.336 30.6167ZM17.7144 26.3616C18.1444 25.9315 18.7278 25.6899 19.336 25.6899H29.5284C30.1366 25.6899 30.7199 25.9315 31.15 26.3616C31.58 26.7918 31.8216 27.3751 31.8216 27.9834C31.8216 28.5917 31.58 29.1751 31.15 29.6052C30.7199 30.0353 30.1366 30.2769 29.5284 30.2769H19.336C18.7278 30.2769 18.1444 30.0353 17.7144 29.6052C17.2843 29.1751 17.0427 28.5917 17.0427 27.9834C17.0427 27.3751 17.2843 26.7918 17.7144 26.3616ZM29.5284 39.451H19.336C18.6376 39.451 17.9679 39.1736 17.4741 38.6798C16.9803 38.1859 16.7029 37.5161 16.7029 36.8177C16.7029 36.1193 16.9803 35.4495 17.4741 34.9557C17.9679 34.4618 18.6376 34.1844 19.336 34.1844H29.5284C30.2267 34.1844 30.8964 34.4618 31.3902 34.9557C31.884 35.4495 32.1614 36.1193 32.1614 36.8177C32.1614 37.5161 31.884 38.1859 31.3902 38.6798C30.8964 39.1736 30.2267 39.451 29.5284 39.451ZM19.336 34.5242C18.7278 34.5242 18.1444 34.7658 17.7144 35.196C17.2843 35.6261 17.0427 36.2094 17.0427 36.8177C17.0427 37.426 17.2843 38.0094 17.7144 38.4395C18.1444 38.8696 18.7278 39.1112 19.336 39.1112H29.5284C30.1366 39.1112 30.7199 38.8696 31.15 38.4395C31.58 38.0094 31.8216 37.426 31.8216 36.8177C31.8216 36.2094 31.58 35.6261 31.15 35.196C30.7199 34.7658 30.1366 34.5242 29.5284 34.5242H19.336ZM19.336 48.2853H29.5284C30.2267 48.2853 30.8964 48.0079 31.3902 47.5141C31.884 47.0202 32.1614 46.3504 32.1614 45.652C32.1614 44.9536 31.884 44.2839 31.3902 43.79C30.8964 43.2962 30.2267 43.0187 29.5284 43.0187H19.336C18.6376 43.0187 17.9679 43.2962 17.4741 43.79C16.9803 44.2839 16.7029 44.9536 16.7029 45.652C16.7029 46.3504 16.9803 47.0202 17.4741 47.5141C17.9679 48.0079 18.6376 48.2853 19.336 48.2853ZM17.7144 44.0303C18.1444 43.6002 18.7278 43.3585 19.336 43.3585H29.5284C30.1366 43.3585 30.7199 43.6002 31.15 44.0303C31.58 44.4604 31.8216 45.0438 31.8216 45.652C31.8216 46.2603 31.58 46.8437 31.15 47.2738C30.7199 47.7039 30.1366 47.9456 29.5284 47.9456H19.336C18.7278 47.9456 18.1444 47.7039 17.7144 47.2738C17.2843 46.8437 17.0427 46.2603 17.0427 45.652C17.0427 45.0438 17.2843 44.4604 17.7144 44.0303ZM31.0572 15.7513H16.7878C16.4725 15.7513 16.17 15.626 15.947 15.4029C15.724 15.1799 15.5987 14.8774 15.5987 14.562C15.5987 14.2466 15.724 13.9441 15.947 13.7211C16.17 13.4981 16.4725 13.3728 16.7878 13.3728H31.0572C31.3726 13.3728 31.675 13.4981 31.898 13.7211C32.121 13.9441 32.2463 14.2466 32.2463 14.562C32.2463 14.8774 32.121 15.1799 31.898 15.4029C31.675 15.626 31.3726 15.7513 31.0572 15.7513ZM66.155 14.9562C66.3505 15.0869 66.5804 15.1566 66.8156 15.1566C67.011 15.1564 67.2015 15.1081 67.3711 15.0184L68.5353 16.1827C68.551 16.1985 68.5697 16.211 68.5904 16.2196C68.611 16.2281 68.6331 16.2325 68.6554 16.2325C68.689 16.2325 68.7218 16.2225 68.7497 16.2038C68.7777 16.1852 68.7994 16.1586 68.8123 16.1276C68.8251 16.0965 68.8285 16.0624 68.822 16.0294C68.8154 15.9965 68.7992 15.9662 68.7755 15.9425L67.6485 14.8154L67.656 14.8079C67.879 14.585 68.0044 14.2827 68.0047 13.9674C68.0047 13.7322 67.935 13.5023 67.8043 13.3067C67.6737 13.1111 67.4879 12.9587 67.2706 12.8687C67.0534 12.7787 66.8143 12.7551 66.5836 12.801C66.3529 12.8469 66.1411 12.9602 65.9748 13.1265C65.8084 13.2928 65.6952 13.5047 65.6493 13.7354C65.6034 13.9661 65.627 14.2052 65.717 14.4225C65.807 14.6398 65.9594 14.8256 66.155 14.9562ZM66.3437 13.2611C66.4834 13.1678 66.6476 13.118 66.8156 13.118C67.0408 13.1182 67.2567 13.2078 67.4159 13.367C67.5751 13.5263 67.6647 13.7422 67.665 13.9674C67.665 14.1354 67.6152 14.2997 67.5218 14.4393C67.4285 14.579 67.2958 14.6879 67.1406 14.7522C66.9854 14.8165 66.8147 14.8333 66.6499 14.8005C66.4851 14.7678 66.3338 14.6869 66.215 14.5681C66.0962 14.4493 66.0153 14.2979 65.9825 14.1331C65.9498 13.9684 65.9666 13.7976 66.0309 13.6423C66.0952 13.4871 66.204 13.3545 66.3437 13.2611ZM60.3604 29.5974H66.1361C66.5641 29.5974 66.9746 29.4273 67.2772 29.1246C67.5799 28.822 67.7499 28.4114 67.7499 27.9834C67.7499 27.5554 67.5799 27.1448 67.2772 26.8422C66.9746 26.5395 66.5641 26.3694 66.1361 26.3694H60.3604C59.9324 26.3694 59.5219 26.5395 59.2193 26.8422C58.9166 27.1448 58.7466 27.5554 58.7466 27.9834C58.7466 28.4114 58.9166 28.822 59.2193 29.1246C59.5219 29.4273 59.9324 29.5974 60.3604 29.5974ZM66.1361 38.4317H60.3604C59.9324 38.4317 59.5219 38.2617 59.2193 37.959C58.9166 37.6563 58.7466 37.2458 58.7466 36.8177C58.7466 36.3897 58.9166 35.9792 59.2193 35.6765C59.5219 35.3738 59.9324 35.2038 60.3604 35.2038H66.1361C66.5641 35.2038 66.9746 35.3738 67.2772 35.6765C67.5799 35.9792 67.7499 36.3897 67.7499 36.8177C67.7499 37.2458 67.5799 37.6563 67.2772 37.959C66.9746 38.2617 66.5641 38.4317 66.1361 38.4317ZM60.3604 47.266H66.1361C66.5641 47.266 66.9746 47.096 67.2772 46.7933C67.5799 46.4906 67.7499 46.0801 67.7499 45.652C67.7499 45.224 67.5799 44.8135 67.2772 44.5108C66.9746 44.2081 66.5641 44.0381 66.1361 44.0381H60.3604C59.9324 44.0381 59.5219 44.2081 59.2193 44.5108C58.9166 44.8135 58.7466 45.224 58.7466 45.652C58.7466 46.0801 58.9166 46.4906 59.2193 46.7933C59.5219 47.096 59.9324 47.266 60.3604 47.266Z" fill="#0278D5"/>
</svg>
